X:1
T:Country Lass
M:3/4
L:1/8
K:D
 D2| D3/2 D/2 d2d/2-d/2 f| e3/2 d/2 c3 A| B3/2 A/2 FE FA| B2- d3 D|\
 D3/2 D/2 d3 f| e3/2 d/2 c3 A| B3/2 A/2 FE FA| B2- d2 e2| c2B/2-A/2 A2 B|\
 AF A3 A| A3/2 A/2 B3 A| AB d3 F| G3/2 F/2 E3 D| g3/2 f/2 e3d/2-e/2|\
(2f3.99999962500005/5.99999925000009f3.99999962500005/5.99999925000009d3.99999962500005/5.99999925000009 B3.99999962500005/5.99999925000009 B3 A|\
 AB d2||
